icon/pk/income.svg

<svg viewBox="0 0 48 48" fill="none" xmlns="http://www.w3.org/2000/svg" height="1em" width="1em">
  <path d="M31 34L43 34" stroke="black" stroke-width="4" stroke-linecap="round" stroke-linejoin="round"/>
  <path d="M43 26V10C43 8.34315 41.6569 7 40 7H8C6.34315 7 5 8.34315 5 10V38C5 39.6569 6.34315 41 8 41H28.4706" stroke="black" stroke-width="4" stroke-linecap="round" stroke-linejoin="round"/>
  <path d="M36 39L31 34L35.9996 29" stroke="black" stroke-width="4" stroke-linecap="round" stroke-linejoin="round"/>
  <path d="M15 15L20 21L25 15" stroke="black" stroke-width="4" stroke-linecap="round" stroke-linejoin="round"/>
  <path d="M14 27H26" stroke="black" stroke-width="4" stroke-linecap="round" stroke-linejoin="round"/>
  <path d="M14 21H26" stroke="black" stroke-width="4" stroke-linecap="round" stroke-linejoin="round"/>
  <path d="M20 21V33" stroke="black" stroke-width="4" stroke-linecap="round" stroke-linejoin="round"/>
</svg>

<svg width="48" height="48" fill="none" xmlns="http://www.w3.org/2000/svg"><path d="M31 34h12M43 26V10a3 3 0 0 0-3-3H8a3 3 0 0 0-3 3v28a3 3 0 0 0 3 3h20.47" stroke="#000" stroke-width="4" stroke-linecap="round" stroke-linejoin="round"/><path d="m36 39-5-5 5-5M15 15l5 6 5-6M14 27h12M14 21h12M20 21v12" stroke="#000" stroke-width="4" stroke-linecap="round" stroke-linejoin="round"/></svg>
